!! 00000] TT[WS
!!!OTL: Qia suantai
!!!ARE: Asia, China, Shanxi Linxian
!! Ethnic Group: Han
!! WII, 117
!!!SCT: J0579
!!!YEM: Copyright 1995, estate of Helmut Schaffrath.
**kern
*ICvox
*Ivox
*M2/4
*k[f#c#g#]
*A:
{8a
8cc#
4b
=1
8a
8cc#
4b
=2
8a
8b
4cc#
=3
8a
8c#
4e}
=4
{8ee
8ee
8ff#
8ff#
=5
8b
16b
16cc#
4a
=6
8f#
16e
16f#
8f#
16c#
16B
=7
2A}
==
!!!AGN: Xiaodiao. Qingge, Sichun
!!!ONB: ESAC (Essen Associative Code) Database: CHINA
!!!AMT: simple duple
!!!AIN: vox
!!!EED: Helmut Schaffrath
!!!EEV: 1.0
*-
